packages/ffe-icons/icons/open/300/md/view_timeline.svg

<svg xmlns="http://www.w3.org/2000/svg" height="24" viewBox="0 -960 960 960" width="24"><path d="M280.769-290.001h158.462q12.769 0 21.384-8.615T469.23-320q0-12.769-8.615-21.384t-21.384-8.615H280.769q-12.769 0-21.384 8.615T250.77-320q0 12.769 8.615 21.384t21.384 8.615Zm120-160h158.462q12.769 0 21.384-8.615T589.23-480q0-12.769-8.615-21.384t-21.384-8.615H400.769q-12.769 0-21.384 8.615T370.77-480q0 12.769 8.615 21.384t21.384 8.615Zm120-160h158.462q12.769 0 21.384-8.615T709.23-640q0-12.769-8.615-21.384t-21.384-8.615H520.769q-12.769 0-21.384 8.615T490.77-640q0 12.769 8.615 21.384t21.384 8.615Zm-308.46 470q-30.308 0-51.308-21t-21-51.308v-535.382q0-30.308 21-51.308t51.308-21h535.382q30.308 0 51.308 21t21 51.308v535.382q0 30.308-21 51.308t-51.308 21H212.309Zm0-59.999h535.382q4.616 0 8.463-3.846 3.846-3.847 3.846-8.463v-535.382q0-4.616-3.846-8.463-3.847-3.846-8.463-3.846H212.309q-4.616 0-8.463 3.846-3.846 3.847-3.846 8.463v535.382q0 4.616 3.846 8.463 3.847 3.846 8.463 3.846ZM200-760V-200-760Z"/></svg>

<svg xmlns="http://www.w3.org/2000/svg" height="24" viewBox="0 -960 960 960" width="24"><path d="M280.77-290h158.46q12.77 0 21.38-8.62 8.62-8.61 8.62-21.38t-8.62-21.38Q452-350 439.23-350H280.77q-12.77 0-21.38 8.62-8.62 8.61-8.62 21.38t8.62 21.38Q268-290 280.77-290Zm120-160h158.46q12.77 0 21.38-8.62 8.62-8.61 8.62-21.38t-8.62-21.38Q572-510 559.23-510H400.77q-12.77 0-21.38 8.62-8.62 8.61-8.62 21.38t8.62 21.38Q388-450 400.77-450Zm120-160h158.46q12.77 0 21.38-8.62 8.62-8.61 8.62-21.38t-8.62-21.38Q692-670 679.23-670H520.77q-12.77 0-21.38 8.62-8.62 8.61-8.62 21.38t8.62 21.38Q508-610 520.77-610ZM212.31-140Q182-140 161-161q-21-21-21-51.31v-535.38Q140-778 161-799q21-21 51.31-21h535.38Q778-820 799-799q21 21 21 51.31v535.38Q820-182 799-161q-21 21-51.31 21H212.31Zm0-60h535.38q4.62 0 8.46-3.85 3.85-3.84 3.85-8.46v-535.38q0-4.62-3.85-8.46-3.84-3.85-8.46-3.85H212.31q-4.62 0-8.46 3.85-3.85 3.84-3.85 8.46v535.38q0 4.62 3.85 8.46 3.84 3.85 8.46 3.85ZM200-760v560-560Z"/></svg>
